packages/kaspersky-hexa-ui-icons/src/iconsSVGs/16/EugeneBlog.svg

<svg width="16" height="16" viewBox="0 0 16 16" fill="none" xmlns="http://www.w3.org/2000/svg">
<path d="M11.859 9.35319L14.7739 13.3722H12.7204L10.2251 9.88322V8.86743L12.6541 5.64347H14.6855L11.859 9.35319Z" fill="black"/>
<path d="M6.72118 12.0399V13.357C6.68489 13.3614 6.64827 13.3649 6.61148 13.3674C6.56526 13.3705 6.51855 13.3722 6.47167 13.3722H4.99316C4.4287 13.3722 3.89094 13.1275 3.555 12.7284L2.38557 11.3121C2.19742 11.0803 2.09 10.8099 2.09 10.5267V10.4365C1.72704 10.1662 1.49853 9.74129 1.49853 9.25195C1.49853 8.76269 1.72704 8.32495 2.09 8.06746V8.05461C2.08739 8.05208 2.08479 8.05005 2.08219 8.04834L2.07535 8.04403C2.06819 8.03979 2.06298 8.03678 2.06298 8.02881C1.65982 7.34644 1.2163 6.09749 1.52538 5.14469C1.77766 4.34562 2.40771 4.13664 2.95116 3.95638L2.95312 3.95565C3.07926 3.9139 3.20068 3.87354 3.31168 3.82772C3.38443 3.79761 3.45263 3.76514 3.51464 3.72835C3.57144 3.69474 3.6328 3.65682 3.69856 3.61613C4.28726 3.25212 5.23046 2.66895 6.3911 2.98161C6.51041 3.01522 6.62027 3.05632 6.72118 3.10311V5.50212C5.82828 5.88354 4.92773 6.7102 4.72444 7.51383L4.68407 7.55241C4.68 7.55241 4.67463 7.55363 4.66894 7.55493C4.66243 7.5564 4.65526 7.55794 4.64859 7.5581C4.64485 7.55819 4.64127 7.55786 4.63818 7.55688C4.63525 7.55607 4.63248 7.55461 4.6302 7.55241C4.41519 7.46232 3.81038 7.17904 3.63557 6.48372C3.63557 6.48372 3.2189 6.83138 3.08463 7.51383V7.53955C3.07112 7.69409 3.05761 7.84855 3.04426 7.99015V8.02881C3.04426 8.07235 3.04117 8.11898 3.03791 8.16707C3.03433 8.21851 3.03075 8.27173 3.03075 8.32495L2.99055 9.05884C2.99055 9.06535 2.98372 9.06852 2.97688 9.06844C2.97021 9.06844 2.96353 9.06519 2.96353 9.05884L2.78889 8.63395C2.58723 8.72412 2.45279 8.95589 2.45279 9.23909C2.45279 9.58675 2.66796 9.87004 2.93668 9.87004C2.94986 9.87004 2.96142 9.87004 2.97249 9.86963L2.99397 9.86808C3.00211 9.86719 3.01025 9.86588 3.01887 9.86401C3.02685 9.8623 3.03531 9.86011 3.04426 9.85718V10.2821C3.79687 10.076 4.10611 10.6296 4.38834 11.1962L4.40185 11.1833C4.56314 10.8743 4.92594 10.6683 5.32926 10.6683H6.27001C6.43017 10.6683 6.58398 10.7008 6.72118 10.7593V11.5366L6.64648 11.3893C6.57926 11.2606 6.43131 11.1833 6.27001 11.1833H5.32926C5.16796 11.1833 5.02001 11.2606 4.95279 11.3893L4.73778 11.8142C4.84537 11.9687 4.9663 12.0846 5.1276 12.1232V11.8786C5.1276 11.7498 5.24853 11.6468 5.39648 11.6468H6.2163C6.36409 11.6468 6.48518 11.7498 6.48518 11.8786V12.149C6.51936 12.1436 6.55224 12.134 6.58398 12.1212C6.60448 12.1128 6.6245 12.1029 6.64403 12.0918C6.66226 12.0815 6.67984 12.0702 6.69709 12.0579L6.72118 12.0399Z" fill="black"/>
<path d="M9.36376 13.3722H7.70767V12.942V10.5048V8.83496V8.23909V6.55729V4.09953V2.77279H9.36376V4.82918V10.7315V13.3722Z" fill="black"/>
<path d="M4.04426 8.6298C4.04426 8.26644 4.31656 8 4.65168 8C4.98681 8 5.25911 8.29069 5.25911 8.6298C5.25911 8.99316 4.98681 9.2596 4.65168 9.2596C4.31656 9.2596 4.04426 8.96891 4.04426 8.6298Z" fill="black"/>
<path d="M6.24706 9.75911C5.97265 9.75911 5.75715 9.5638 5.75715 9.34684C5.89436 9.43359 6.0511 9.4987 6.24706 9.4987C6.44303 9.4987 6.59993 9.43359 6.73697 9.34684C6.73697 9.58553 6.52148 9.75911 6.24706 9.75911Z" fill="black"/>
</svg>

<svg xmlns="http://www.w3.org/2000/svg" width="16" height="16" fill="none" viewBox="0 0 16 16"><path fill="#000" d="m11.859 9.353 2.915 4.019h-2.053l-2.495-3.489V8.867l2.429-3.224h2.031zM6.721 12.04v1.317a2.1 2.1 0 0 1-.249.015H4.993c-.564 0-1.102-.245-1.438-.644l-1.169-1.416c-.188-.232-.296-.502-.296-.785v-.09c-.363-.27-.591-.695-.591-1.184s.229-.927.592-1.184v-.013a.05.05 0 0 0-.008-.006l-.007-.004c-.007-.004-.012-.007-.012-.015-.403-.682-.847-1.931-.538-2.884.252-.799.882-1.008 1.426-1.188l.002-.001c.126-.042.248-.082.359-.128a1.6 1.6 0 0 0 .203-.099c.057-.034.118-.071.184-.112.589-.364 1.532-.947 2.693-.634.119.034.229.075.33.122v2.399c-.893.381-1.793 1.208-1.997 2.012l-.04.039a.1.1 0 0 0-.015.003.1.1 0 0 1-.02.003.03.03 0 0 1-.01-.001.02.02 0 0 1-.008-.004c-.215-.09-.82-.373-.995-1.069 0 0-.417.348-.551 1.03v.026c-.013.155-.027.309-.04.451v.039c0 .044-.003.09-.006.138a2.3 2.3 0 0 0-.007.158l-.04.734c0 .007-.007.01-.014.01s-.013-.003-.013-.01l-.178-.431c-.202.09-.336.322-.336.605 0 .348.215.631.484.631h.036l.022-.001a.24.24 0 0 0 .05-.011v.425c.753-.206 1.062.348 1.344.914l.014-.013c.161-.309.524-.515.928-.515h.939c.16 0 .314.033.451.091v.777l-.075-.147c-.067-.129-.215-.206-.376-.206h-.941c-.161 0-.309.077-.376.206l-.215.425c.108.155.229.27.39.309v-.245c0-.129.121-.232.269-.232h.82c.148 0 .269.103.269.232v.27a.45.45 0 0 0 .099-.028.5.5 0 0 0 .06-.029.6.6 0 0 0 .053-.034zm2.643 1.332H7.708V2.773h1.656z"/><path fill="#000" d="M4.044 8.63c0-.363.272-.63.607-.63s.607.291.607.63c0 .363-.272.63-.607.63s-.607-.291-.607-.63m2.203 1.129c-.274 0-.49-.195-.49-.412.137.087.294.152.49.152s.353-.065.49-.152c0 .239-.215.412-.49.412"/></svg>
